src/ios-videocam-outline.svg

<?xml version="1.0" encoding="utf-8"?>
<!-- Generated by IcoMoon.io -->
<!DOCTYPE svg PUBLIC "-//W3C//DTD SVG 1.1//EN" "http://www.w3.org/Graphics/SVG/1.1/DTD/svg11.dtd">
<svg version="1.1" xmlns="http://www.w3.org/2000/svg" xmlns:xlink="http://www.w3.org/1999/xlink" width="512" height="512" viewBox="0 0 512 512">
<path fill="#000000" d="M303.7 128h-221c-18.8 0-35.7 14.1-35.7 32.7v187.9c0 18.6 16.9 35.4 35.7 35.4h221c18.8 0 33.3-16.8 33.3-35.4v-187.9c0-18.6-14.5-32.7-33.3-32.7zM320 348.6c0 9.3-6.9 18.4-16.3 18.4h-221c-9.4 0-18.7-9.1-18.7-18.4v-187.9c0-9.3 9-15.5 18.4-15.5l221 0.1c9.4 0 16.6 6.1 16.6 15.4v187.9z"></path>
<path fill="#000000" d="M367 213v85.6l98 53.4v-192l-98 53zM448 190v132.3l-64-33.5v-65.6l64.1-33.6-0.1 0.4z"></path>
</svg>

<?xml version="1.0" encoding="utf-8"?>
<!-- Generator: Adobe Illustrator 16.2.1, SVG Export Plug-In . SVG Version: 6.00 Build 0)  -->
<!DOCTYPE svg PUBLIC "-//W3C//DTD SVG 1.1//EN" "http://www.w3.org/Graphics/SVG/1.1/DTD/svg11.dtd">
<svg version="1.1" id="Layer_1" xmlns="http://www.w3.org/2000/svg" xmlns:xlink="http://www.w3.org/1999/xlink" x="0px" y="0px"
	 width="512px" height="512px" viewBox="0 0 512 512" style="enable-background:new 0 0 512 512;" xml:space="preserve">
<g>
	<path d="M303.7,128h-221C63.9,128,47,142.1,47,160.7v187.9c0,18.6,16.9,35.4,35.7,35.4h221c18.8,0,33.3-16.8,33.3-35.4V160.7
		C337,142.1,322.5,128,303.7,128z M320,348.6c0,9.3-6.9,18.4-16.3,18.4h-221c-9.4,0-18.7-9.1-18.7-18.4V160.7
		c0-9.3,9-15.5,18.4-15.5l221,0.1c9.4,0,16.6,6.1,16.6,15.4V348.6z"/>
	<path d="M367,213v85.6l98,53.4V160L367,213z M448,190v132.3l-64-33.5v-65.6l64.1-33.6L448,190z"/>
</g>
</svg>
